X: 18292
T: Humours Of Tralee, The
R: jig
M: 6/8
K: Aminor
ABA AGE|G2A c2d|efe dcA|GEG GEG|
ABA AGE|A2B c2d|efe dcA|A3 A3:|
|:ege edc|ded d2e|ged cAG|GEG GEG|
ABA AGE|A2B c2d|efe dcA|A3 A3:|

